X: 256
T: Hai tai
%%abc-version 2.0
%%abcx-abcm2ps-target-version 5.9.1 (29 Sep 2008)
%%abc-creator hum2abc beta
%%abcx-conversion-date 2013/10/02 07:52:29
%%abc-edited-by Helmut Schaffrath
%%humdrum-veritas 584048316
%%humdrum-veritas-data 2368039498
%%continueall 1
%%barnumbers 0
L: 1/16
M: 2/4
K: G
g2 f e d2 B d [I:setbarnb 1]| 
e g f e2< d2 B | 
g2 f e B2 d e | 
G F E GA4 | 
A B d2 B g e d | 
B A B d2< G2 E | 
A A A B d G F E | 
D8 |]  



